img/Location.svg

<svg width="146" height="146" viewBox="0 0 146 146" fill="none" xmlns="http://www.w3.org/2000/svg">
<mask id="mask0" mask-type="alpha" maskUnits="userSpaceOnUse" x="12" y="92" width="121" height="54">
<path fill-rule="evenodd" clip-rule="evenodd" d="M131.727 113.186C132.552 113.828 132.722 115.003 132.108 115.848C118.84 134.119 97.3077 146 73 146C47.8906 146 25.7421 133.323 12.6059 114.02C12.0184 113.156 12.2247 111.987 13.0679 111.371C29.3563 99.4666 49.4522 92.4371 71.1945 92.4371C94.0203 92.4371 115.031 100.185 131.727 113.186Z" fill="#51B816"/>
</mask>
<g mask="url(#mask0)">
<path d="M31.1956 99.1842L73.7682 121.291L30.7102 148.591L-11.8623 126.485L31.1956 99.1842Z" fill="#75C738"/>
<path d="M116.826 93.9802L159.398 116.087L116.34 143.387L73.7676 121.281L116.826 93.9802Z" fill="#93D65E"/>
<path d="M73.7839 121.29L116.357 143.397L73.2986 170.697L30.726 148.591L73.7839 121.29Z" fill="#46A314"/>
<path d="M74.2505 71.884L116.823 93.9908L73.7652 121.291L31.1926 99.1844L74.2505 71.884Z" fill="#CCF0AD"/>
</g>
<path fill-rule="evenodd" clip-rule="evenodd" d="M95.3489 69.7993C99.1316 64.9386 101.385 58.8286 101.385 52.1923C101.385 36.346 88.5386 23.5 72.6923 23.5C56.846 23.5 44 36.346 44 52.1923C44 58.8363 46.2582 64.9528 50.0489 69.8162C50.0478 69.8162 50.0473 69.8161 50.0473 69.8161C50.0628 69.8353 50.0783 69.8544 50.0938 69.8736C50.2697 70.0981 50.4488 70.3199 50.6312 70.5389C61.6043 84.1581 65.986 91.7847 69.9556 110.562C70.2049 111.742 71.242 112.594 72.4476 112.594C73.7136 112.594 74.7828 111.654 74.9741 110.402C77.8177 91.8026 83.0684 84.7184 94.6061 70.7144C94.7647 70.527 94.9209 70.3375 95.0747 70.146C95.1698 70.0308 95.2652 69.9151 95.3611 69.7989C95.3611 69.7989 95.357 69.799 95.3489 69.7993Z" fill="#E86B13"/>
<path fill-rule="evenodd" clip-rule="evenodd" d="M95.3489 69.7993C99.1316 64.9386 101.385 58.8286 101.385 52.1923C101.385 36.346 88.5386 23.5 72.6923 23.5C56.846 23.5 44 36.346 44 52.1923C44 58.8363 46.2582 64.9528 50.0489 69.8162C50.0478 69.8162 50.0473 69.8161 50.0473 69.8161C50.0628 69.8353 50.0783 69.8544 50.0938 69.8736C50.2697 70.0981 50.4488 70.3199 50.6312 70.5389C61.6043 84.1581 65.986 91.7847 69.9556 110.562C70.2049 111.742 71.242 112.594 72.4476 112.594C73.7136 112.594 74.7828 111.654 74.9741 110.402C77.8177 91.8026 83.0684 84.7184 94.6061 70.7144C94.7647 70.527 94.9209 70.3375 95.0747 70.146C95.1698 70.0308 95.2652 69.9151 95.3611 69.7989C95.3611 69.7989 95.357 69.799 95.3489 69.7993Z" fill="url(#paint0_radial)"/>
<circle cx="73" cy="52.1748" r="16" fill="#FAEFE6"/>
<defs>
<radialGradient id="paint0_radial" cx="0" cy="0" r="1" gradientUnits="userSpaceOnUse" gradientTransform="translate(-8.9115 -6.10885) rotate(45.8882) scale(174.913 112.659)">
<stop stop-color="white" stop-opacity="0.25"/>
<stop offset="1" stop-color="white" stop-opacity="0"/>
</radialGradient>
</defs>
</svg>

<svg width="146" height="146" fill="none" xmlns="http://www.w3.org/2000/svg"><mask id="a" maskUnits="userSpaceOnUse" x="12" y="92" width="121" height="54"><path fill-rule="evenodd" clip-rule="evenodd" d="M131.728 113.186c.824.642.994 1.817.38 2.662C118.84 134.119 97.308 146 73 146c-25.11 0-47.258-12.677-60.394-31.98a1.932 1.932 0 0 1 .462-2.649c16.288-11.904 36.384-18.934 58.127-18.934 22.825 0 43.836 7.748 60.533 20.749z" fill="#51B816"/></mask><g mask="url(#a)"><path d="M31.196 99.184l42.572 22.107-43.058 27.3-42.572-22.106 43.058-27.3z" fill="#75C738"/><path d="M116.826 93.98l42.572 22.107-43.058 27.3-42.572-22.106 43.058-27.3z" fill="#93D65E"/><path d="M73.784 121.29l42.572 22.107-43.057 27.3-42.573-22.106 43.058-27.301z" fill="#46A314"/><path d="M74.25 71.884l42.573 22.107-43.058 27.3-42.572-22.107 43.058-27.3z" fill="#CCF0AD"/></g><path fill-rule="evenodd" clip-rule="evenodd" d="M95.349 69.8a28.57 28.57 0 0 0 6.036-17.608c0-15.846-12.846-28.692-28.693-28.692C56.846 23.5 44 36.346 44 52.192c0 6.644 2.258 12.76 6.049 17.624h-.002l.047.058c.176.224.355.446.537.665 10.973 13.62 15.355 21.246 19.325 40.023a2.554 2.554 0 0 0 2.492 2.032c1.266 0 2.335-.94 2.526-2.192 2.844-18.6 8.094-25.684 19.632-39.688.159-.187.315-.376.469-.568l.286-.347h-.012z" fill="#E86B13"/><path fill-rule="evenodd" clip-rule="evenodd" d="M95.349 69.8a28.57 28.57 0 0 0 6.036-17.608c0-15.846-12.846-28.692-28.693-28.692C56.846 23.5 44 36.346 44 52.192c0 6.644 2.258 12.76 6.049 17.624h-.002l.047.058c.176.224.355.446.537.665 10.973 13.62 15.355 21.246 19.325 40.023a2.554 2.554 0 0 0 2.492 2.032c1.266 0 2.335-.94 2.526-2.192 2.844-18.6 8.094-25.684 19.632-39.688.159-.187.315-.376.469-.568l.286-.347h-.012z" fill="url(#paint0_radial)"/><circle cx="73" cy="52.175" r="16" fill="#FAEFE6"/><defs><radialGradient id="paint0_radial" cx="0" cy="0" r="1" gradientUnits="userSpaceOnUse" gradientTransform="matrix(121.75006 125.58455 -80.88724 78.4175 -8.912 -6.109)"><stop stop-color="#fff" stop-opacity=".25"/><stop offset="1" stop-color="#fff" stop-opacity="0"/></radialGradient></defs></svg>
